X: 7
T: Russisk Vals
B:[[Notböcker/Melodier til gamle danske Almuedanse for Violin solo]]
O:Danmark
Z:Søren Bak Vestergaard
M: 2/4
L: 1/8
K: D
(A/G/)|FAFA|GB EG|FA df|g/f/e/d/ c/B/A/G/|FAFA|\
GB EG|FA ce|d2 z:| |:(c/d/)|eAA (d/e/)|fdd (e/f/)|\
gaba|g/f/e/d/ c/B/A/G/|FAFA|GB EG|FA ce|d2 z:| |:\
(A/d/)|ff/d/ gg/e/|aa/f/ (.b.g)|ee ag|\
gff (A/d/)|ff/d/ gg/e/|aa/f/ (.b.g)|ee a>c|ddd:|

